images/data_analysis/math_expression.svg

<svg xmlns:xlink="http://www.w3.org/1999/xlink" width="15.901ex" height="4.509ex" style="vertical-align:-.838ex" viewBox="0 -1580.7 6846.2 1941.5" xmlns="http://www.w3.org/2000/svg"><defs><path stroke-width="10" id="a" d="M26 385q-7 7-7 10 0 4 3 16t5 14q2 5 9 5t51 1h53l19 80q3 11 7 29t7 26 6 20 8 17 10 12 14 9 18 2q18-1 25-11t7-19q0-7-9-47t-20-79l-10-37q0-2 50-2h51q7-7 7-11 0-22-13-35H210l-36-145Q135 80 135 68q0-42 27-42 35 0 68 34t53 84q2 6 5 7t15 2h4q15 0 15-8 0-3-3-12-5-16-18-38t-34-47-51-42-61-17q-30 0-57 15T59 56q-2 8-2 27v18l35 140q35 141 36 142 0 2-51 2H26z"/><path stroke-width="10" id="b" d="M56 347q0 13 14 20h637q15-8 15-20 0-11-14-19l-318-1H72q-16 5-16 20zm0-194q0 15 16 20h636q14-10 14-20 0-13-15-20H70q-14 7-14 20z"/><path stroke-width="10" id="c" d="M118-162q2 0 6-2t11-3 12-1q13 0 24 13t16 29q10 27 34 153t46 240 22 115v3h-47q-47 0-50 2-4 3-4 10l7 28q2 5 8 5t47 1q48 0 48 1 0 2 9 50t12 58q37 165 146 165 37-2 61-22t24-53q0-36-21-52t-42-17q-44 0-44 42 0 19 11 33t24 21l9 5q-16 6-30 6-12 0-23-10t-15-28q-7-29-16-78t-16-83-7-36q0-2 55-2 45 0 52-1t11-6q1-4-2-17t-5-16q-2-5-9-5t-54-1h-56l-23-122Q301 15 282-47q-27-85-70-126-37-32-73-32-32 0-58 19t-26 54q0 37 21 54t42 17q44 0 44-42 0-19-11-33t-24-21l-9-5z"/><path stroke-width="10" id="d" d="M94 250q0 69 10 131t23 107 37 88 38 67 42 52 33 34 25 21h17q14 0 14-9 0-3-17-21t-41-53-49-86-42-138-17-193 17-192 41-139 49-86 42-53 17-21q0-9-15-9h-16l-28 24q-94 85-137 212T94 250z"/><path stroke-width="10" id="e" d="M436 683q14 0 50-1t67-2q51 0 85 1t39 1q18 0 18-8 0-4-3-15-5-18-9-20t-22-2q-25-1-40-5t-21-8-3-9q0-12 16-238t16-239l2 3q2 3 6 10t12 19 17 30 24 41 30 54 39 67q104 184 118 210t15 32q0 15-19 24t-42 9q-14 0-14 10 0 3 2 13 4 16 6 19t14 3h56q25 0 54-1 66 0 85 2 14 0 14-11 0-6-3-17t-7-15-10-3q-22 0-40-6t-30-14-19-17-12-16l-4-6-169-296Q586-14 585-15q-6-7-24-7-15 0-19 5-3 3-19 246t-17 251l-12-18q-22-37-128-223Q222-13 220-15t-5-4q-5-3-18-3-19 0-21 7 0 3-22 319t-23 318q-2 9-10 11t-39 4H58q-7 7-7 11 1 23 13 35h12q42-3 100-3 125 0 137 3h10q6-6 6-9t-2-18q-5-15-9-19h-21q-61-3-65-17 30-460 34-484l235 414-2 37q-3 42-10 45-6 4-42 5-19 0-25 2t-6 9q0 2 2 12 1 4 2 9t1 7 3 4 4 2 8 1z"/><path stroke-width="10" id="f" d="M79 43q-6 0-27 6T30 61q0 7 55 232t61 235q15 32 52 32 20 0 42-15t22-44q0-5-2-15-1-7-87-223T84 45t-5-2z"/><path stroke-width="10" id="g" d="M56 237v13l14 20h765q-116 87-143 223v3q0 2-1 3 0 12 17 12h3q9 0 12-1t6-4 3-9 3-16 8-25q22-67 73-120t119-75q9-3 9-11 0-6-5-9t-24-10-38-19q-41-26-71-60t-45-67-21-50-8-31q-2-10-5-12t-16-3q-20 0-20 11 0 7 5 25 32 126 139 205H70q-14 7-14 20z"/><path stroke-width="10" id="h" d="M208 74q0-24 46-28 18 0 18-11 0-1-2-13-3-14-6-18t-13-4h-12q-10 0-34 1t-64 1Q70 2 50 0h-8q-7 7-7 11 2 27 13 35h14q70 3 102 50 6 6 181 305t178 303q7 12 24 12h25q6-9 6-10l28-323q28-323 30-326 5-11 65-11 25 0 25-10 0-2-3-14-3-15-5-18t-14-4h-14q-11 0-39 1t-73 1q-94 0-123-2h-12q-6 6-6 9t2 18q4 13 6 16l4 3h20q54 3 64 17l-12 150H283l-34-58q-41-69-41-81zm308 186q0 11-12 156t-14 146l-27-43q-16-27-63-107l-90-152 103-1q103 0 103 1z"/><path stroke-width="10" id="i" d="M-123 694q0 8 5 14t15 6q10 0 15-8t8-19 13-27 27-27q11-7 11-18 0-9-7-15t-17-10-30-19-38-40q-14-15-22-15t-14 6-6 14 11 23 23 25 13 11h-171l-171 1-3 3q-2 2-5 3t-3 5-2 8q0 7 13 20h359q-24 38-24 59z"/><path stroke-width="10" id="j" d="M56 237v13l14 20h299v150l1 150q10 13 19 13 13 0 20-15V270h298q15-8 15-20t-15-20H409V-68q-8-14-18-14h-4q-12 0-18 14v298H70q-14 7-14 20z"/><path stroke-width="10" id="k" d="M73 647q0 10 4 23t12 13q1 0 72 5t73 6q12 0 12-9t-34-143q-8-34-17-70t-15-54l-4-19q0-3 6 3 49 40 101 40 62 0 100-46t39-116q0-111-79-201T173-11q-50 0-91 38T40 150v9q0 21 8 58t49 197q50 197 50 209t-38 14H83q-3 0-7 3t-3 7zm263-322v6q0 74-61 74-17 0-35-8t-33-21-26-24-18-22l-6-8-21-86q-22-86-22-122 0-48 24-72 16-16 40-16 33 0 67 32 25 23 40 56t33 105q18 72 18 106z"/><path stroke-width="10" id="l" d="M60 749l4 1h22l28-24q94-85 137-212t43-264q0-68-10-131T261 12t-37-88-38-67-41-51-32-33-23-19l-4-4H63q-3 0-5 3t-3 9q1 1 11 13Q221-64 221 250T66 725q-10 12-11 13 0 8 5 11z"/></defs><g stroke="currentColor" fill="currentColor" stroke-width="0" transform="scale(1 -1)"><use xlink:href="#a"/><use xlink:href="#b" x="643"/><use xlink:href="#c" x="1704"/><use xlink:href="#d" x="2259"/><g transform="translate(2653)"><use xlink:href="#e"/><use transform="scale(.707)" xlink:href="#f" x="1533" y="583"/><use xlink:href="#g" x="188" y="944"/></g><g transform="translate(4035)"><use xlink:href="#h"/><use xlink:href="#i" x="747" y="327"/></g><use xlink:href="#j" x="5013"/><use xlink:href="#k" x="6018"/><use xlink:href="#l" x="6452"/></g></svg>

<?xml version="1.0" standalone="no"?>
<!DOCTYPE svg PUBLIC "-//W3C//DTD SVG 1.1//EN" "http://www.w3.org/Graphics/SVG/1.1/DTD/svg11.dtd">
<svg xmlns:xlink="http://www.w3.org/1999/xlink" width="15.901ex" height="4.509ex" style="vertical-align: -0.838ex;" viewBox="0 -1580.7 6846.2 1941.5" xmlns="http://www.w3.org/2000/svg">
<defs>
<path stroke-width="10" id="E1-MJMATHI-74" d="M26 385Q19 392 19 395Q19 399 22 411T27 425Q29 430 36 430T87 431H140L159 511Q162 522 166 540T173 566T179 586T187 603T197 615T211 624T229 626Q247 625 254 615T261 596Q261 589 252 549T232 470L222 433Q222 431 272 431H323Q330 424 330 420Q330 398 317 385H210L174 240Q135 80 135 68Q135 26 162 26Q197 26 230 60T283 144Q285 150 288 151T303 153H307Q322 153 322 145Q322 142 319 133Q314 117 301 95T267 48T216 6T155 -11Q125 -11 98 4T59 56Q57 64 57 83V101L92 241Q127 382 128 383Q128 385 77 385H26Z"></path>
<path stroke-width="10" id="E1-MJMAIN-3D" d="M56 347Q56 360 70 367H707Q722 359 722 347Q722 336 708 328L390 327H72Q56 332 56 347ZM56 153Q56 168 72 173H708Q722 163 722 153Q722 140 707 133H70Q56 140 56 153Z"></path>
<path stroke-width="10" id="E1-MJMATHI-66" d="M118 -162Q120 -162 124 -164T135 -167T147 -168Q160 -168 171 -155T187 -126Q197 -99 221 27T267 267T289 382V385H242Q195 385 192 387Q188 390 188 397L195 425Q197 430 203 430T250 431Q298 431 298 432Q298 434 307 482T319 540Q356 705 465 705Q502 703 526 683T550 630Q550 594 529 578T487 561Q443 561 443 603Q443 622 454 636T478 657L487 662Q471 668 457 668Q445 668 434 658T419 630Q412 601 403 552T387 469T380 433Q380 431 435 431Q480 431 487 430T498 424Q499 420 496 407T491 391Q489 386 482 386T428 385H372L349 263Q301 15 282 -47Q255 -132 212 -173Q175 -205 139 -205Q107 -205 81 -186T55 -132Q55 -95 76 -78T118 -61Q162 -61 162 -103Q162 -122 151 -136T127 -157L118 -162Z"></path>
<path stroke-width="10" id="E1-MJMAIN-28" d="M94 250Q94 319 104 381T127 488T164 576T202 643T244 695T277 729T302 750H315H319Q333 750 333 741Q333 738 316 720T275 667T226 581T184 443T167 250T184 58T225 -81T274 -167T316 -220T333 -241Q333 -250 318 -250H315H302L274 -226Q180 -141 137 -14T94 250Z"></path>
<path stroke-width="10" id="E1-MJMATHI-57" d="M436 683Q450 683 486 682T553 680Q604 680 638 681T677 682Q695 682 695 674Q695 670 692 659Q687 641 683 639T661 637Q636 636 621 632T600 624T597 615Q597 603 613 377T629 138L631 141Q633 144 637 151T649 170T666 200T690 241T720 295T759 362Q863 546 877 572T892 604Q892 619 873 628T831 637Q817 637 817 647Q817 650 819 660Q823 676 825 679T839 682Q842 682 856 682T895 682T949 681Q1015 681 1034 683Q1048 683 1048 672Q1048 666 1045 655T1038 640T1028 637Q1006 637 988 631T958 617T939 600T927 584L923 578L754 282Q586 -14 585 -15Q579 -22 561 -22Q546 -22 542 -17Q539 -14 523 229T506 480L494 462Q472 425 366 239Q222 -13 220 -15T215 -19Q210 -22 197 -22Q178 -22 176 -15Q176 -12 154 304T131 622Q129 631 121 633T82 637H58Q51 644 51 648Q52 671 64 683H76Q118 680 176 680Q301 680 313 683H323Q329 677 329 674T327 656Q322 641 318 637H297Q236 634 232 620Q262 160 266 136L501 550L499 587Q496 629 489 632Q483 636 447 637Q428 637 422 639T416 648Q416 650 418 660Q419 664 420 669T421 676T424 680T428 682T436 683Z"></path>
<path stroke-width="10" id="E1-MJMAIN-2032" d="M79 43Q73 43 52 49T30 61Q30 68 85 293T146 528Q161 560 198 560Q218 560 240 545T262 501Q262 496 260 486Q259 479 173 263T84 45T79 43Z"></path>
<path stroke-width="10" id="E1-MJMAIN-2192" d="M56 237T56 250T70 270H835Q719 357 692 493Q692 494 692 496T691 499Q691 511 708 511H711Q720 511 723 510T729 506T732 497T735 481T743 456Q765 389 816 336T935 261Q944 258 944 250Q944 244 939 241T915 231T877 212Q836 186 806 152T761 85T740 35T732 4Q730 -6 727 -8T711 -11Q691 -11 691 0Q691 7 696 25Q728 151 835 230H70Q56 237 56 250Z"></path>
<path stroke-width="10" id="E1-MJMATHI-41" d="M208 74Q208 50 254 46Q272 46 272 35Q272 34 270 22Q267 8 264 4T251 0Q249 0 239 0T205 1T141 2Q70 2 50 0H42Q35 7 35 11Q37 38 48 46H62Q132 49 164 96Q170 102 345 401T523 704Q530 716 547 716H555H572Q578 707 578 706L606 383Q634 60 636 57Q641 46 701 46Q726 46 726 36Q726 34 723 22Q720 7 718 4T704 0Q701 0 690 0T651 1T578 2Q484 2 455 0H443Q437 6 437 9T439 27Q443 40 445 43L449 46H469Q523 49 533 63L521 213H283L249 155Q208 86 208 74ZM516 260Q516 271 504 416T490 562L463 519Q447 492 400 412L310 260L413 259Q516 259 516 260Z"></path>
<path stroke-width="10" id="E1-MJMAIN-20D7" d="M-123 694Q-123 702 -118 708T-103 714Q-93 714 -88 706T-80 687T-67 660T-40 633Q-29 626 -29 615Q-29 606 -36 600T-53 590T-83 571T-121 531Q-135 516 -143 516T-157 522T-163 536T-152 559T-129 584T-116 595H-287L-458 596Q-459 597 -461 599T-466 602T-469 607T-471 615Q-471 622 -458 635H-99Q-123 673 -123 694Z"></path>
<path stroke-width="10" id="E1-MJMAIN-2B" d="M56 237T56 250T70 270H369V420L370 570Q380 583 389 583Q402 583 409 568V270H707Q722 262 722 250T707 230H409V-68Q401 -82 391 -82H389H387Q375 -82 369 -68V230H70Q56 237 56 250Z"></path>
<path stroke-width="10" id="E1-MJMATHI-62" d="M73 647Q73 657 77 670T89 683Q90 683 161 688T234 694Q246 694 246 685T212 542Q204 508 195 472T180 418L176 399Q176 396 182 402Q231 442 283 442Q345 442 383 396T422 280Q422 169 343 79T173 -11Q123 -11 82 27T40 150V159Q40 180 48 217T97 414Q147 611 147 623T109 637Q104 637 101 637H96Q86 637 83 637T76 640T73 647ZM336 325V331Q336 405 275 405Q258 405 240 397T207 376T181 352T163 330L157 322L136 236Q114 150 114 114Q114 66 138 42Q154 26 178 26Q211 26 245 58Q270 81 285 114T318 219Q336 291 336 325Z"></path>
<path stroke-width="10" id="E1-MJMAIN-29" d="M60 749L64 750Q69 750 74 750H86L114 726Q208 641 251 514T294 250Q294 182 284 119T261 12T224 -76T186 -143T145 -194T113 -227T90 -246Q87 -249 86 -250H74Q66 -250 63 -250T58 -247T55 -238Q56 -237 66 -225Q221 -64 221 250T66 725Q56 737 55 738Q55 746 60 749Z"></path>
</defs>
<g stroke="currentColor" fill="currentColor" stroke-width="0" transform="matrix(1 0 0 -1 0 0)">
 <use xlink:href="#E1-MJMATHI-74" x="0" y="0"></use>
 <use xlink:href="#E1-MJMAIN-3D" x="643" y="0"></use>
 <use xlink:href="#E1-MJMATHI-66" x="1704" y="0"></use>
 <use xlink:href="#E1-MJMAIN-28" x="2259" y="0"></use>
<g transform="translate(2653,0)">
 <use xlink:href="#E1-MJMATHI-57" x="0" y="0"></use>
 <use transform="scale(0.707)" xlink:href="#E1-MJMAIN-2032" x="1533" y="583"></use>
 <use xlink:href="#E1-MJMAIN-2192" x="188" y="944"></use>
</g>
<g transform="translate(4035,0)">
 <use xlink:href="#E1-MJMATHI-41" x="0" y="0"></use>
 <use xlink:href="#E1-MJMAIN-20D7" x="747" y="327"></use>
</g>
 <use xlink:href="#E1-MJMAIN-2B" x="5013" y="0"></use>
 <use xlink:href="#E1-MJMATHI-62" x="6018" y="0"></use>
 <use xlink:href="#E1-MJMAIN-29" x="6452" y="0"></use>
</g>
</svg>
